X: 25210
T: Malcolm's New Fiddle
R: jig
M: 6/8
K: Gmajor
|:D2G GAB|GAG GBd|gab age|dBG AGE|
D2G GAB|AGG GBd|gab age|1 dBG G2E:|2 dBG G3||
d2e dBd|gab abg|ee/e/e dd/d/d|dBA ABc|
d2e dBd|gab abg|ee/e/e dd/d/d|1 dBG GBc:|2 dBG G3||

